img/header-background.svg

<svg xmlns="http://www.w3.org/2000/svg" width="1280" height="408" viewBox="0 0 1280 408"><path d="M0 0h1280v408H0V0z" fill="#3949AB"/><path d="M540.948 17.979c20.757 0 37.583 16.827 37.583 37.583 0 20.757-16.826 37.584-37.583 37.584-13.742-.062-24.601-6.931-32.135-18.084H0v-39h508.813c7.042-11.3 18.908-17.748 32.135-18.083zM0 228.645v-38h268.176c10.493 0 19 8.506 19 19 0 10.493-8.507 19-19 19H0z" fill="#4352AF"/><path d="M0 151.667v-38h268.176v.144c52.927 0 95.833 42.906 95.833 95.834 0 52.927-42.906 95.833-95.833 95.833v-.145H0v-38h268.176c31.94 0 57.833-25.893 57.833-57.833 0-31.94-25.893-57.833-57.833-57.833H0zm675.052 205c-20.757 0-37.583-16.827-37.583-37.584 0-20.756 16.826-37.583 37.583-37.583 13.742.062 24.601 6.931 32.135 18.083H1280v39H707.186c-7.041 11.3-18.907 17.749-32.134 18.084zm604.948-212v38h-268.176c-10.493 0-19-8.507-19-19 0-10.494 8.507-19 19-19H1280z" fill="#4352AF"/><path d="M1280 221.645v38h-268.176v-.145c-52.927 0-95.833-42.906-95.833-95.833 0-52.928 42.906-95.834 95.833-95.834v.145H1280v38h-268.176c-31.94 0-57.833 25.893-57.833 57.833 0 31.941 25.893 57.833 57.833 57.833l268.176.001z" fill="#4352AF"/></svg>

<?xml version="1.0" encoding="UTF-8"?>
<!DOCTYPE svg PUBLIC "-//W3C//DTD SVG 1.1//EN" "http://www.w3.org/Graphics/SVG/1.1/DTD/svg11.dtd">
<svg version="1.1" xmlns="http://www.w3.org/2000/svg" xmlns:xlink="http://www.w3.org/1999/xlink" x="0" y="0" width="1280" height="408" viewBox="0, 0, 1280, 408">
  <g id="Image">
    <path d="M-0,0 L1280,0 L1280,408 L-0,408 L-0,0 z" fill="#3949AB"/>
    <path d="M540.948,17.979 C561.705,17.979 578.531,34.806 578.531,55.562 C578.531,76.319 561.705,93.146 540.948,93.146 C527.206,93.084 516.347,86.215 508.813,75.062 L-0,75.062 L-0,36.062 L508.813,36.062 C515.855,24.762 527.721,18.314 540.948,17.979 z" fill="#4352AF"/>
    <path d="M0,228.645 L0,190.645 L268.176,190.645 C278.669,190.645 287.176,199.151 287.176,209.645 C287.176,220.138 278.669,228.645 268.176,228.645 L0,228.645 z" fill="#4352AF"/>
    <path d="M0,151.667 L0,113.667 L268.176,113.667 L268.176,113.811 C321.103,113.811 364.009,156.717 364.009,209.645 C364.009,262.572 321.103,305.478 268.176,305.478 L268.176,305.333 L0,305.333 L0,267.333 L268.176,267.333 C300.116,267.333 326.009,241.44 326.009,209.5 C326.009,177.56 300.116,151.667 268.176,151.667 L0,151.667 z" fill="#4352AF"/>
    <path d="M268.676,305.978" fill-opacity="0" stroke="#000000" stroke-width="1"/>
    <path d="M268.676,267.833" fill-opacity="0" stroke="#000000" stroke-width="1"/>
    <path d="M675.052,356.667 C654.295,356.667 637.469,339.84 637.469,319.083 C637.469,298.327 654.295,281.5 675.052,281.5 C688.794,281.562 699.653,288.431 707.187,299.583 L1280,299.583 L1280,338.583 L707.186,338.583 C700.145,349.883 688.279,356.332 675.052,356.667 z" fill="#4352AF"/>
    <path d="M1280,144.667 L1280,182.667 L1011.824,182.667 C1001.331,182.667 992.824,174.16 992.824,163.667 C992.824,153.173 1001.331,144.667 1011.824,144.667 L1280,144.667 z" fill="#4352AF"/>
    <path d="M1280,221.645 L1280,259.645 L1011.824,259.645 L1011.824,259.5 C958.897,259.5 915.991,216.594 915.991,163.667 C915.991,110.739 958.897,67.833 1011.824,67.833 L1011.824,67.978 L1280,67.978 L1280,105.978 L1011.824,105.978 C979.884,105.978 953.991,131.871 953.991,163.811 C953.991,195.752 979.884,221.644 1011.824,221.644 L1280,221.645 z" fill="#4352AF"/>
  </g>
</svg>
